X:1
T:3rd of July
C:Paul Rosen
S:Copyright 2005, Paul Rosen
M:4/4
L:1/8
Q:C4=120
R:driving
K:Em
|:"Em"e2gg e2gg|"D"f2aa f2aa|"Em"e2gg e2gg|"D"fed2 fed2|"Em"e2gg
e2gg|"D"f2aa f2aa|"Em"b4 "D"a4|ged2 "Em"e4:|
|:"Em"e4 B4|d2B2-B2BB|"C"c2c2 BAG2|"Em"E2EE E4|"D"D2DE F2A2|"Em"BABd
e2ef|g2e2 "D"fed2|"Em"e2ee e4:|
